X: 1
T: Polska fr\aan Viksta I
C: uppt. Ingvar Norman
C: arr. Alm Nils Ersson
R: polska
M: 3/4
L: 1/8
Z: 2010 John Chambers <jc:trillian.mit.edu>
S: printed MS of unknown origin p.65 (Svenska l\aatar?)
K: G
V: 1
|: G>B dc {dc}Ac | TB>A G4 | g{ag}e (cd) eTg | d2 B4 :|
|: d>g {ga}g>f e>d | c>B A3 B | c>d e>d (Bc) | A2 G4 :|
V: 2
|: [D2G,2] (BA) FD | G,>C [D2B,2] G,2 | E2 (GB) ce | B2 G2 D2 :|
|: B2 E>F G>B | A2 E>D C>B, | A,2 C2 DE | F2 G2 G,2 :|
